X: 1
T: COME TO YOUR TAY -- REEL
B: Ryan's Mammoth Collection of Fiddle Tunes
R: reel
M: C|
L: 1/8
Z: Contributed 20010905143824 by John Chambers jmchambers:rcn.net
K: D
"segno"\
|]vd2(dc) A2(Bc) | d2(de) fdec | dedB   A2(AB) | =cAGE (ED)D2 |
|  d2(dc) A2(Bc) | d2(de) fdec | d2(dc) A2(AB) | =cAGE (ED)D2 :|
|: d2(fd) adfd | ceAe cAeA | d2(fd) adfd | faae fdec |
|  d2(fd) adfd | c2(ec) gefg | abag fdec | eaag fdec "segno"[|] :|
